!!!COM: Charles Gounod
!!!CNT: Francais
!!!TXO: Francais
!!!OTL: "Ou/ voulez-vous aller?"
!!!LYR: Gautier
!!!OPR: 
!!!OPS: Op. 
!!!ONM: No.
!!!ENC: Emily Thomas
!!!YOR: CD Sheet Music French Art Songs, The Ultimate Collection
!!!YOR: CD Sheet Music, LLC 2003
!!!ODT: 1839/
!!NB: Vocal melody and text encoded.
**kern	**silbe
=1	=1
*clefG2	*
*k[f#]	*
*M6/8	*
*MM[Mouvt de Barcarolle.]	*
2.r	.
=2	=2
2.r	.
=3	=3
2.r	.
=4	=4
2.r	.
=5	=5
2.r	.
=6	=6
2.r	.
=7	=7
2.r	.
=8	=8
2.r	.
=9	=9
2.r	.
=10	=10
2.r	.
=11	=11
2.r	.
=12	=12
2.r	.
=13	=13
2.r	.
=14	=14
2.r	.
=15	=15
{4.dd	{Di-
4.ee	-tes,
=16	=16
8dd	la
8cc	jeu-
8b	-ne
4a	bel-
8a	-le,
=17	=17
8b	Oh\
8a	vou-
8b	-lez-
4g	-vous
8a	al-
=18	=18
8b}	-ler?}
8r	.
8r	.
4r	.
8r	.
=19	=19
{4.dd	{La
4.ee	voile
=20	=20
8dd	ou-
8cc	-vre
8b	son
4a	ai-
8a}	-le,}
=21	=21
{8b	{La
8a	bri-
8b	-se
4g	va
8a	souf-
=22	=22
[4dd	-fler,
16dd]	|
16b	|
[4cc	|
16cc]	|
16a	|
=23	=23
[4dd	|
16dd]	|
16b	|
[4cc	|
16cc]	|
16a	|
=24	=24
8dd}	|}
8r	.
8r	.
{[4.dd	{La
=25	=25
8dd]	|
8ff#q	bri-
8ee	|
8dd	-se
4a	va
8b	souf-
=26	=26
16bq	-fler
16aq	|
[4.g	|
8g]}	|}
8r	.
8r	.
=27	=27
2.r	.
=28	=28
2.r	.
=29	=29
2.r	.
=30	=30
2.r	.
=31	=31
8r	.
{8g	{L'a-
8a	-vi-
8b	-ron
8a	est
8g	d'i-
=32	=32
4.ee	-voi-
8dd#}	-re,}
8r	.
8r	.
=33	=33
8r	.
{8a	{Le
8b	pa-
8cc	-vil-
8b	-lon
8a	de
=34	=34
4b	moi-
8a	|
4g}	-re,}
8r	.
=35	=35
{[4.cc	{Le
8cc]	|
8b	gou-
8a	-ver-
=36	=36
4.ee	-nail
4.b	d'or
=37	=37
[4.a	fin;
8a]}	|}
8r	.
8r	.
=38	=38
8r	.
{8a	{J'ai
8b	pour
8cc	lest
8b	une
8a	o-
=39	=39
4.ee	-ran-
8cc}	-ge.}
8r	.
8r	.
=40	=40
8r	.
{8cc	{Pour
8dd	voile
8ee	une
8dd	ai-
8cc	-le
=41	=41
4.gg	d'an-
8b}	-ge,}
8r	.
8r	.
=42	=42
8r	.
{8a	{Pour
8b	mousse
8cc#	un
8dd	se/-
8ee	-ra-
=43	=43
[2.dd	-phin.
=44	=44
2.dd_	|
=45	=45
2.dd_	|
=46	=46
2.dd]}	|}
=47	=47
{4.dd	{Di-
4.ee	-tes,
=48	=48
8dd	la
8cc	je
8b	une
4a	bel-
8a	-le,
=49	=49
8b	Ou\
8a	vou-
8b	-lez-
4g	-vous
8a	al-
=50	=50
8b}	-ler?}
8r	.
8r	.
4r	.
8r	.
=51	=51
{4.dd	{La
4.ee	voile
=52	=52
8dd	ou-
8cc	-vre
8b	son
4a	ai-
8a}	-le,}
=53	=53
{8b	{La
8a	bri-
8b	-se
4g	va
8a	souf-
=54	=54
[4dd	-fler,
16dd]	|
16b	|
[4cc	|
16cc]	|
16a	|
=55	=55
[4dd	|
16dd]	|
16b	|
[4cc	|
16cc]	|
16a	|
=56	=56
8dd}	|}
8r	.
8r	.
{[4.dd	{La
=57	=57
8dd]	|
8ff#q	bri-
8ee	|
8dd	-se
4a	va
8b	souf-
=58	=58
16bq	-fler.
16aq	|
[4.g	|
8g]}	|}
8r	.
8r	.
=59	=59
2.r	.
=60	=60
2.r	.
=61	=61
2.r	.
=62	=62
2.r	.
=63	=63
8r	.
{8g	{Est-
8a	-ce
8b	dans
8a	la
8g	Bal-
=64	=64
4.ee	-ti-
8dd#]}	|}
8r	.
8r	.
=65	=65
8r	.
{8a	{Sur
8b	la
8cc	mer
8b	Pa-
8a	-ci-
=66	=66
4b	-fi-
8a	|
4g}	-que.]}
8r	.
=67	=67
{4.cc	{Dans
8cc	I'l-
8b	|
8a	-le
=68	=68
4.ee	de
4.b	Ja-
=69	=69
[4.a	-va;
8a]}	|}
8r	.
8r	.
=70	=70
8r	.
{8a	{Ou
8b	bien
8cc	dans
8b	la
8a	Nor-
=71	=71
4.ee	-we\-
8cc}	-ge,}
8r	.
8r	.
=72	=72
8r	.
{8cc	{Cueil-
8dd	-lir
8ee	la
8dd	fleur
8cc	de
=73	=73
4.gg	nei-
8b}	-ge,}
8r	.
8r	.
=74	=74
8r	.
{8a	{Ou
8b	la
8cc#	lleur
8dd	d'ang-
8ee	-so-
=75	=75
[2.dd	-ka?
=76	=76
2.dd_	|
=77	=77
2.dd_	|
=78	=78
2.dd]}	|}
=79	=79
{4.dd	{Di-
4.ee	-tes,
=80	=80
8dd	la
8cc	jeu-
8b	-ne
4a	bel-
8a	-le,
=81	=81
8b	Ou\
8a	vou-
8b	-lez-
4g	-vous
8a	al-
=82	=82
8b}	-ler?}
8r	.
8r	.
4r	.
8r	.
=83	=83
{4.dd	{La
4.ee	voile
=84	=84
8dd	ou-
8cc	-vre
8b	son
4a	ai-
8a	-le,
=85	=85
8b	La
8a	bri-
8b	-se
4g	va
8a	souf-
=86	=86
[4dd	-fler,
16dd]	|
16b	|
[4cc	|
16cc]	|
16a	|
=87	=87
[4dd	|
16dd]	|
16b	|
[4cc	|
16cc]	|
16a	|
=88	=88
8dd]}	|}
8r	.
8r	.
{[4.dd	{La
=89	=89
8dd]	|
8ff#q	bri-
8ee	|
8dd	-se
4a	va
8b	souf-
=90	=90
16bq	-fler
16aq	|
[4.g	-fler.
8g]}	|}
8r	.
8r	.
=91	=91
2.r	.
=92	=92
2.r	.
=93	=93
2.r	.
=94	=94
2.r	.
=95	=95
8r	.
{8g	{Me-
8a	-nez-
8b	-moi,
8a	dit
8g	la
=96	=96
4.ee	bel-
8dd#}	-le,}
8r	.
8r	.
=97	=97
8r	.
{8a	{A
8b	la
8cc	ri-
8b	-ve
8a	fi-
=98	=98
4b	-de\-
8a	|
4.g}	le,}
=99	=99
{[4.cc	{Ou\
8cc]	|
8b	|
8a	l'on
=100	=100
4.ee	ai-
4b	-me
8cc	tou-
=101	=101
[4.a	-jours,
8a]}	|}
8r	.
8r	.
=102	=102
8r	.
{8a	{Cet-
8b	-te
8cc	ri-
8b	-ve
8a	ma
=103	=103
4.ee	che\-
8cc}	-re}
8r	.
8r	.
=104	=104
8r	.
{8cc	{On
8dd	ne
8ee	la
8dd	con-
8cc	-nait
=105	=105
4.gg	gue\-
8b}	-re,}
8r	.
8r	.
=106	=106
8r	.
{8a	{Au
8b	pa-
8cc#	-ys
8dd	des
8ee	a-
=107	=107
[2.dd	-mours
=108	=108
2.dd_	|
=109	=109
2.dd_	|
=110	=110
2.dd]}	|}
=111	=111
{4.dd	{Di-
4.ee	-tes,
=112	=112
8dd	la
8cc	je-
8b	-une
4a	bel-
8a	-le,
=113	=113
8b	Ou\
8a	vou-
8b	-lez-
4g	-vous
8a	al-
=114	=114
8b}	-ler?}
8r	.
8r	.
4r	.
8r	.
=115	=115
{4.dd	{La
4.ee	voile
=116	=116
8dd	ou-
8cc	-vre
8b	son
4a	ai-
8a}	-le,}
=117	=117
{8b	{La
8a	bri-
8b	-se
4g	va
8a	souf-
=118	=118
[4dd	-fler,
16dd]	|
16b	|
[4cc	|
16cc]	|
16a	|
=119	=119
[4dd	|
16dd]	|
16b	|
[4cc	|
16cc]	|
16a	|
=120	=120
8dd]}	|}
8r	.
8r	.
{[4.dd	{La
=121	=121
8dd]	|
8ff#q	bri-
8ee	|
8dd	-se
[8aaq	va
16aaq]	|
16ggq	|
16ff#q	|
16eeq	|
16ddq	|
16ccq	|
16bq	|
16aq	|
16gq	|
16f#q	|
16eq	|
16dq	|
16f#q	|
16aq	|
16ccq	|
4ee	|
8dd	souf-
=122	=122
8g}	-fler.}
8r	.
8r	.
4r	.
8r	.
==	==
*-	*-
